X: 240
T:Jig 131
T:Strop The Razor
M:6/8
L:1/8
R:Jig
Z:John D. Harvey 
K:G
BGG AGG | BGG AGE | DGG GFG | DGG GFG | BGG AGG |
BGG AGE | D2E F2G | ADE FGA :||: d2Bc2A | e2B CAF |
DGG GFG | DGG GBc | d2Bc2A | e2B cAF | D2E F2G |
ADE FGA :||: B2Bc2c | d2B def | gfg gfg | gba gdc|
B2B ABA | d2Bd2e | f2f fdg | fdg fdc:||

